X: 38
T: Steal-partner Dance Song (d)
C: Anon.
%%abc-version 2.0
%%abcx-abcm2ps-target-version 5.9.1 (29 Sep 2008)
%%abc-creator hum2abc beta
%%abcx-conversion-date 2020/08/10 20:56:09
%%abc-copyright Electronic Copyright 2000 David Huron
%%abc-edited-by David Huron
%%abcx-initial-encoding-date August 28, 2000
%%humdrum-veritas 2734408907
%%humdrum-veritas-data 3632819386
%%linebreak <none>
%%barnumbers 0
L: 1/8
M: 3/4
Q: 1/4=92
K: E clef=bass
G, G,G,2F,2 [I:setbarnb 2]| 
E, E, E, E, E, z | 
F, F, F,> E,E,2 | 
G,> F,G,2F,2 | 
E, C, E, E, E, z | 
E, C, E, E,E,2[M:2/4] | 
C,2F,2 | 
E,2C, E,[M:3/4] | 
E,2>z2 E, C,[M:2/4] | 
E, E,E,2 :|]  


